X: 19
T:Mason's Apron, The
M:C|
L:1/8
R:Reel
K:A
aA~A2 ABAF|EFAc dcBA|dBBA ~B3A|Bcde fefg|!
aA~A2 ABAF|EFAc dcBA|Bcde fgaf|ecBc A3e:|!
|:cAeA fAeA|cAeA fedc|df~f2 af~f2|df~f2 afed|!
cAeA fAeA|cAeA fecA|dcde fgaf|ecBc A3e:|]!
